src/assets/images/arrow-asset.svg

<svg width="253" height="143" viewBox="0 0 253 143" fill="none" xmlns="http://www.w3.org/2000/svg">
<path d="M-1.05591 119.169L-10.9164 95.5035H-1.05591H8.80462L18.6652 119.169L8.80462 142.834H-1.05591H-10.9164L-1.05591 119.169Z" fill="white" fill-opacity="0.06"/>
<path d="M34.8365 119.169L24.9759 95.5035H34.8365H44.697L54.5575 119.169L44.697 142.834H34.8365H24.9759L34.8365 119.169Z" fill="white" fill-opacity="0.06"/>
<path d="M70.7288 119.169L60.8682 95.5035H70.7288H80.5893L90.4498 119.169L80.5893 142.834H70.7288H60.8682L70.7288 119.169Z" fill="white" fill-opacity="0.06"/>
<path d="M106.621 119.169L96.7606 95.5035H106.621H116.482L126.342 119.169L116.482 142.834H106.621H96.7606L106.621 119.169Z" fill="white" fill-opacity="0.06"/>
<path d="M142.513 119.169L132.653 95.5035H142.513H152.374L162.234 119.169L152.374 142.834H142.513H132.653L142.513 119.169Z" fill="white" fill-opacity="0.06"/>
<path d="M178.406 119.169L168.545 95.5035H178.406H188.266L198.127 119.169L188.266 142.834H178.406H168.545L178.406 119.169Z" fill="white" fill-opacity="0.06"/>
<path d="M214.298 119.169L204.438 95.5035H214.298H224.159L234.019 119.169L224.159 142.834H214.298H204.438L214.298 119.169Z" fill="white" fill-opacity="0.06"/>
<path d="M250.19 119.169L240.33 95.5035H250.19H260.051L269.911 119.169L260.051 142.834H250.19H240.33L250.19 119.169Z" fill="white" fill-opacity="0.06"/>
<path d="M16.6931 71.8383L6.83252 48.173H16.6931H26.5536L36.4141 71.8383L26.5536 95.5035H16.6931H6.83252L16.6931 71.8383Z" fill="white" fill-opacity="0.06"/>
<path d="M52.5854 71.8382L42.7248 48.1729H52.5854H62.4459L72.3064 71.8382L62.4459 95.5035H52.5854H42.7248L52.5854 71.8382Z" fill="white" fill-opacity="0.06"/>
<path d="M88.4777 71.8382L78.6172 48.1729H88.4777H98.3383L108.199 71.8382L98.3383 95.5035H88.4777H78.6172L88.4777 71.8382Z" fill="white" fill-opacity="0.06"/>
<path d="M124.37 71.8382L114.51 48.173H124.37H134.231L144.091 71.8382L134.231 95.5035H124.37H114.51L124.37 71.8382Z" fill="white" fill-opacity="0.06"/>
<path d="M160.262 71.8382L150.402 48.1729H160.262H170.123L179.983 71.8382L170.123 95.5035H160.262H150.402L160.262 71.8382Z" fill="white" fill-opacity="0.06"/>
<path d="M196.155 71.8382L186.294 48.173H196.155H206.015L215.876 71.8382L206.015 95.5035H196.155H186.294L196.155 71.8382Z" fill="white" fill-opacity="0.06"/>
<path d="M232.047 71.8382L222.186 48.1729H232.047H241.908L251.768 71.8382L241.908 95.5035H232.047H222.186L232.047 71.8382Z" fill="white" fill-opacity="0.06"/>
<path d="M-1.45038 24.5077L-11.3109 0.842392L-1.45038 0.842392L8.41015 0.842392L18.2707 24.5077L8.41015 48.1729H-1.45038H-11.3109L-1.45038 24.5077Z" fill="white" fill-opacity="0.06"/>
<path d="M34.442 24.5076L24.5815 0.842346L34.442 0.842346L44.3025 0.842346L54.1631 24.5076L44.3025 48.1729H34.442H24.5815L34.442 24.5076Z" fill="white" fill-opacity="0.06"/>
<path d="M70.3343 24.5077L60.4738 0.842407L70.3343 0.842407L80.1948 0.842407L90.0554 24.5077L80.1948 48.173H70.3343H60.4738L70.3343 24.5077Z" fill="white" fill-opacity="0.06"/>
<path d="M106.227 24.5076L96.3661 0.842346L106.227 0.842346L116.087 0.842346L125.948 24.5076L116.087 48.1729H106.227H96.3661L106.227 24.5076Z" fill="white" fill-opacity="0.06"/>
<path d="M142.119 24.5077L132.258 0.842438L142.119 0.842438L151.98 0.842438L161.84 24.5077L151.98 48.173H142.119H132.258L142.119 24.5077Z" fill="white" fill-opacity="0.06"/>
<path d="M178.011 24.5076L168.151 0.842361L178.011 0.842361L187.872 0.842361L197.732 24.5076L187.872 48.1729H178.011H168.151L178.011 24.5076Z" fill="white" fill-opacity="0.06"/>
<path d="M213.904 24.5077L204.043 0.842407L213.904 0.842407L223.764 0.842407L233.625 24.5077L223.764 48.173H213.904H204.043L213.904 24.5077Z" fill="white" fill-opacity="0.06"/>
<path d="M249.796 24.5077L239.935 0.842407L249.796 0.842407L259.657 0.842407L269.517 24.5077L259.657 48.173H249.796H239.935L249.796 24.5077Z" fill="white" fill-opacity="0.06"/>
</svg>

<svg xmlns="http://www.w3.org/2000/svg" width="253" height="143" fill="none"><path fill="#fff" fill-opacity=".06" d="m-1.056 119.169-9.86-23.665h19.72l9.861 23.665-9.86 23.665h-19.721l9.86-23.665ZM34.837 119.169l-9.861-23.665h19.721l9.86 23.665-9.86 23.665H24.976l9.86-23.665ZM70.729 119.169l-9.86-23.665h19.72l9.86 23.665-9.86 23.665H60.87l9.86-23.665ZM106.621 119.169l-9.86-23.665h19.721l9.86 23.665-9.86 23.665H96.761l9.86-23.665ZM142.513 119.169l-9.86-23.665h19.721l9.86 23.665-9.86 23.665h-19.721l9.86-23.665ZM178.406 119.169l-9.861-23.665h19.721l9.861 23.665-9.861 23.665h-19.721l9.861-23.665ZM214.298 119.169l-9.86-23.665h19.721l9.86 23.665-9.86 23.665h-19.721l9.86-23.665ZM250.19 119.169l-9.86-23.665h19.721l9.86 23.665-9.86 23.665H240.33l9.86-23.665ZM16.693 71.838l-9.86-23.665h19.72l9.861 23.665-9.86 23.666H6.833l9.86-23.666ZM52.585 71.838l-9.86-23.665h19.72l9.861 23.665-9.86 23.666H42.725l9.86-23.666ZM88.478 71.838l-9.86-23.665h19.72l9.861 23.665-9.86 23.666H78.617l9.86-23.666ZM124.37 71.838l-9.86-23.665h19.721l9.86 23.665-9.86 23.666H114.51l9.86-23.666ZM160.262 71.838l-9.86-23.665h19.721l9.86 23.665-9.86 23.666h-19.721l9.86-23.666ZM196.155 71.838l-9.861-23.665h19.721l9.861 23.665-9.861 23.666h-19.721l9.861-23.666ZM232.047 71.838l-9.861-23.665h19.722l9.86 23.665-9.86 23.666h-19.722l9.861-23.666Z"/><path fill="#fff" fill-opacity=".06" d="M-1.45 24.508-11.31.842H8.41l9.86 23.666-9.86 23.665h-19.72l9.86-23.665ZM34.442 24.508 24.582.842h19.72l9.861 23.666-9.86 23.665H24.582l9.86-23.665ZM70.334 24.508 60.474.842h19.72l9.861 23.666-9.86 23.665H60.474l9.86-23.665ZM106.227 24.508 96.367.842h19.72l9.861 23.666-9.861 23.665h-19.72l9.86-23.665ZM142.119 24.508 132.258.842h19.722l9.86 23.666-9.86 23.665h-19.722l9.861-23.665ZM178.011 24.508 168.151.842h19.721l9.86 23.666-9.86 23.665h-19.721l9.86-23.665ZM213.904 24.508 204.043.842h19.721l9.861 23.666-9.861 23.665h-19.721l9.861-23.665ZM249.796 24.508 239.935.842h19.722l9.86 23.666-9.86 23.665h-19.722l9.861-23.665Z"/></svg>
